; generated by PrusaSlicer 2.9.0 on 2025-03-06 at 02:45:37 UTC


;
;
; 

; external perimeters extrusion width = 0.45mm
; perimeters extrusion width = 0.45mm
; infill extrusion width = 0.45mm
; solid infill extrusion width = 0.45mm
; top infill extrusion width = 0.40mm
; support material extrusion width = 0.35mm
; first layer extrusion width = 0.42mm

M73 P0 R9
M73 Q0 S9
M201 X1000 Y1000 Z200 E5000 ; sets maximum accelerations, mm/sec^2
M203 X200 Y200 Z12 E120 ; sets maximum feedrates, mm / sec
M204 S1250 T1250 ; sets acceleration (S) and retract acceleration (R), mm/sec^2
M205 X8.00 Y8.00 Z0.40 E4.50 ; sets the jerk limits, mm/sec
M205 S0 T0 ; sets the minimum extruding and travel feed rate, mm/sec

; printing object Body6.stl id:0 copy 0
; stop printing object Body6.stl id:0 copy 0

;TYPE:Custom
M862.3 P "MK3S" ; printer model check
M862.1 P0.4 ; nozzle diameter check
M115 U3.14.1 ; tell printer latest fw version
G90 ; use absolute coordinates
M83 ; extruder relative mode
M104 S215 ; set extruder temp
M140 S60 ; set bed temp
M190 S60 ; wait for bed temp
M109 S215 ; wait for extruder temp
G28 W ; home all without mesh bed level
G80 X116.261 Y90.5046 W39.0802 H36.7731 ; mesh bed levelling

G1 Z0.2 F720
G1 Y-3 F1000 ; go outside print area
G92 E0
G1 X60 E9 F1000 ; intro line
G1 X100 E12.5 F1000 ; intro line

G92 E0
M221 S95

; Don't change E values below. Excessive value can damage the printer.
M907 E430 ; set extruder motor current
G21 ; set units to millimeters
G90 ; use absolute coordinates
M83 ; use relative distances for extrusion

M900 K0.05 ; Filament gcode LA 1.5
M900 K30 ; Filament gcode LA 1.0




M107
;LAYER_CHANGE
;Z:0.2
;HEIGHT:0.2
G1 E-.8 F2100
M73 P1 R9
M73 Q1 S9
G1 Z.6 F720
G1 X119.508 Y96.059 F10800
G1 Z.2 F720
G1 E.8 F2100
M204 S800
;TYPE:Skirt/Brim
;WIDTH:0.42
G1 F1200
G1 X121.815 Y93.752 E.1023
G1 X122.482 Y93.271 E.02578
G1 X127.096 Y90.964 E.16174
G1 X128.243 Y90.693 E.03695
G1 X143.358 Y90.693 E.47392
G1 X144.506 Y90.964 E.03698
G1 X149.12 Y93.271 E.16174
G1 X149.787 Y93.752 E.02578
G1 X152.094 Y96.059 E.1023
G1 X152.574 Y96.726 E.02577
G1 X154.881 Y101.34 E.16174
G1 X155.152 Y102.487 E.03695
G1 X155.152 Y117.602 E.47392
G1 X154.881 Y118.75 E.03698
G1 X152.574 Y123.364 E.16174
G1 X152.094 Y124.031 E.02577
G1 X149.787 Y126.338 E.1023
G1 X147.973 Y127.089 E.06156
G1 X125.936 Y127.089 E.69095
G1 X124.789 Y126.818 E.03695
M73 P2 R9
M73 Q2 S9
G1 X120.175 Y124.511 E.16174
G1 X119.027 Y123.364 E.05088
G1 X116.72 Y118.75 E.16174
G1 X116.449 Y117.602 E.03698
G1 X116.449 Y102.487 E.47392
G1 X116.72 Y101.34 E.03695
G1 X119.027 Y96.726 E.16174
G1 X119.473 Y96.107 E.02392
M204 S1000
G1 X119.473 Y96.107 F10800
G1 X119.774 Y96.325
M204 S800
G1 F1200
G1 X122.082 Y94.018 E.10232
G1 X122.65 Y93.608 E.02196
G1 X127.264 Y91.301 E.16174
G1 X128.243 Y91.07 E.03154
G1 X143.358 Y91.07 E.47392
G1 X144.337 Y91.301 E.03154
G1 X148.951 Y93.608 E.16174
G1 X149.52 Y94.018 E.02199
G1 X151.827 Y96.325 E.1023
G1 X152.237 Y96.894 E.02199
G1 X154.544 Y101.508 E.16174
G1 X154.775 Y102.487 E.03154
G1 X154.775 Y117.602 E.47392
G1 X154.544 Y118.581 E.03154
G1 X152.237 Y123.195 E.16174
G1 X151.827 Y123.764 E.02199
M73 Q3 S9
G1 X149.52 Y126.071 E.1023
G1 X147.973 Y126.712 E.0525
M73 P3 R9
G1 X125.936 Y126.712 E.69095
G1 X124.957 Y126.481 E.03154
G1 X120.343 Y124.174 E.16174
G1 X119.364 Y123.195 E.04341
G1 X117.057 Y118.581 E.16174
G1 X116.826 Y117.602 E.03154
G1 X116.826 Y102.487 E.47392
G1 X117.057 Y101.508 E.03154
G1 X119.364 Y96.894 E.16174
G1 X119.739 Y96.374 E.0201
M204 S1000
;WIPE_START
G1 F8640
G1 X119.774 Y96.325 E-.0139
G1 X122.082 Y94.018 E-.7535
G1 X122.197 Y93.935 E-.0326
;WIPE_END
G1 Z.6 F720
; printing object Body6.stl id:0 copy 0
G1 X143.358 Y95.566 F10800
G1 Z.2 F720
G1 E.8 F2100
M204 S800
;TYPE:Support material
G1 F1200
G1 X147.973 Y95.566 E.1447
G1 X147.973 Y97.873 E.07233
G1 X150.28 Y97.873 E.07233
G1 X150.28 Y102.487 E.14467
G1 X152.587 Y102.487 E.07233
G1 X152.587 Y117.602 E.47392
G1 X150.28 Y117.602 E.07233
G1 X150.28 Y122.216 E.14467
M73 Q4 S9
G1 X147.973 Y122.216 E.07233
G1 X147.973 Y124.524 E.07237
M73 P4 R9
G1 X137.322 Y124.524 E.33395
G1 X136.974 Y122.509 E.06411
G1 X138.254 Y122.325 E.04055
G1 X139.716 Y121.94 E.0474
G1 X140.875 Y121.492 E.03896
G1 X142.045 Y120.9 E.04111
G1 X142.843 Y120.35 E.03039
G1 X143.875 Y119.477 E.04238
G1 X144.836 Y118.462 E.04383
G1 X145.629 Y117.419 E.04108
G1 X146.617 Y115.684 E.0626
G1 X147.321 Y113.742 E.06477
G1 X147.683 Y111.72 E.06441
G1 X147.704 Y109.777 E.06092
G1 X147.351 Y107.638 E.06797
G1 X146.999 Y106.525 E.0366
G1 X146.502 Y105.38 E.03914
G1 X145.484 Y103.694 E.06175
G1 X144.691 Y102.722 E.03933
G1 X144.008 Y102.03 E.03049
G1 X142.385 Y100.778 E.06427
G1 X141.232 Y100.114 E.04172
G1 X140.058 Y99.557 E.04074
G1 X137.992 Y98.94 E.06761
G1 X135.843 Y98.726 E.06771
G1 X133.688 Y98.925 E.06786
G1 X131.615 Y99.528 E.06769
G1 X129.674 Y100.528 E.06846
G1 X128.113 Y101.738 E.06193
G1 X126.394 Y103.637 E.08031
G1 X125.333 Y105.324 E.06249
G1 X124.818 Y106.477 E.03959
G1 X124.424 Y107.716 E.04076
M73 P4 R8
G1 X124.091 Y109.737 E.06422
G1 X124.099 Y111.614 E.05885
G1 X124.445 Y113.621 E.06386
G1 X125.085 Y115.43 E.06016
G1 X126.162 Y117.358 E.06924
G1 X126.873 Y118.296 E.0369
G1 X127.772 Y119.26 E.04133
G1 X128.768 Y120.119 E.04124
G1 X129.932 Y120.911 E.04414
G1 X130.994 Y121.484 E.03784
G1 X132.359 Y122.037 E.04618
G1 X133.335 Y122.322 E.03188
G1 X134.63 Y122.513 E.04104
G1 X134.301 Y124.524 E.06389
G1 X125.936 Y124.524 E.26228
G1 X125.936 Y122.216 E.07237
M73 Q4 S8
G1 X121.322 Y122.216 E.14467
G1 X121.322 Y117.602 E.14467
M73 Q5 S8
G1 X119.015 Y117.602 E.07233
G1 X119.015 Y102.487 E.47392
M73 P5 R8
G1 X121.322 Y102.487 E.07233
G1 X121.322 Y97.873 E.14467
G1 X123.629 Y97.873 E.07233
G1 X123.629 Y95.566 E.07233
G1 X128.243 Y95.566 E.14467
G1 X128.243 Y93.259 E.07233
G1 X143.358 Y93.259 E.47392
G1 X143.358 Y95.509 E.07055
M204 S1000
G1 X143.358 Y95.509 F10800
G1 X152.141 Y117.433
M204 S800
G1 F1200
G1 X152.141 Y102.826 E.45799
G1 X151.722 Y102.826 E.01314
G1 X151.722 Y117.263 E.45266
G1 X151.303 Y117.263 E.01314
G1 X151.303 Y102.826 E.45266
G1 X150.884 Y102.826 E.01314
G1 X150.884 Y117.263 E.45266
G1 X150.465 Y117.263 E.01314
M73 P6 R8
M73 Q6 S8
G1 X150.465 Y102.826 E.45266
G1 X150.046 Y102.826 E.01314
G1 X150.046 Y117.263 E.45266
G1 X149.94 Y117.263 E.00332
G1 X149.94 Y121.877 E.14467
G1 X149.627 Y121.877 E.00981
G1 X149.627 Y98.212 E.742
G1 X149.208 Y98.212 E.01314
G1 X149.208 Y121.877 E.742
G1 X148.789 Y121.877 E.01314
G1 X148.789 Y98.212 E.742
G1 X148.37 Y98.212 E.01314
M73 P7 R8
M73 Q7 S8
G1 X148.37 Y121.877 E.742
G1 X147.951 Y121.877 E.01314
G1 X147.951 Y98.212 E.742
G1 X147.633 Y98.212 E.00997
G1 X147.633 Y95.905 E.07233
G1 X147.532 Y95.905 E.00317
G1 X147.532 Y107.034 E.34894
G1 X147.113 Y105.901 E.03788
G1 X147.113 Y95.905 E.31342
G1 X146.694 Y95.905 E.01314
G1 X146.694 Y105.004 E.28529
G1 X146.275 Y104.268 E.02655
G1 X146.275 Y95.905 E.26222
G1 X145.856 Y95.905 E.01314
G1 X145.856 Y103.633 E.24231
G1 X145.437 Y103.076 E.02185
G1 X145.437 Y95.905 E.22484
G1 X145.018 Y95.905 E.01314
M73 P8 R8
M73 Q8 S8
G1 X145.018 Y102.582 E.20935
G1 X144.599 Y102.134 E.01923
G1 X144.599 Y95.905 E.19531
G1 X144.18 Y95.905 E.01314
G1 X144.18 Y101.729 E.18261
G1 X143.761 Y101.363 E.01744
G1 X143.761 Y95.905 E.17113
G1 X143.342 Y95.905 E.01314
G1 X143.342 Y101.031 E.16072
G1 X142.923 Y100.727 E.01623
G1 X142.923 Y93.598 E.22352
G1 X142.504 Y93.598 E.01314
G1 X142.504 Y100.452 E.2149
G1 X142.085 Y100.201 E.01531
G1 X142.085 Y93.598 E.20703
G1 X141.666 Y93.598 E.01314
G1 X141.666 Y99.972 E.19985
G1 X141.248 Y99.739 E.015
G1 X141.248 Y93.598 E.19255
G1 X140.829 Y93.598 E.01314
G1 X140.829 Y99.529 E.18596
G1 X140.41 Y99.338 E.01444
G1 X140.41 Y93.598 E.17997
G1 X139.991 Y93.598 E.01314
G1 X139.991 Y99.169 E.17467
G1 X139.572 Y99.015 E.014
G1 X139.572 Y93.598 E.16985
G1 X139.153 Y93.598 E.01314
G1 X139.153 Y98.884 E.16574
G1 X138.734 Y98.762 E.01368
G1 X138.734 Y93.598 E.16191
G1 X138.315 Y93.598 E.01314
M73 Q9 S8
G1 X138.315 Y98.666 E.1589
G1 X137.896 Y98.579 E.01342
M73 P9 R8
G1 X137.896 Y93.598 E.15618
G1 X137.477 Y93.598 E.01314
G1 X137.477 Y98.511 E.15404
G1 X137.058 Y98.459 E.01324
G1 X137.058 Y93.598 E.15241
G1 X136.639 Y93.598 E.01314
G1 X136.639 Y98.418 E.15113
G1 X136.22 Y98.399 E.01315
G1 X136.22 Y93.598 E.15053
G1 X135.801 Y93.598 E.01314
G1 X135.801 Y98.387 E.15016
G1 X135.382 Y98.398 E.01314
G1 X135.382 Y93.598 E.1505
G1 X134.963 Y93.598 E.01314
G1 X134.963 Y98.419 E.15116
G1 X134.544 Y98.458 E.01319
G1 X134.544 Y93.598 E.15238
G1 X134.125 Y93.598 E.01314
G1 X134.125 Y98.511 E.15404
G1 X133.706 Y98.577 E.0133
G1 X133.706 Y93.598 E.15611
G1 X133.287 Y93.598 E.01314
G1 X133.287 Y98.665 E.15887
G1 X132.868 Y98.762 E.01348
G1 X132.868 Y93.598 E.16191
G1 X132.449 Y93.598 E.01314
G1 X132.449 Y98.883 E.16571
G1 X132.03 Y99.016 E.01378
G1 X132.03 Y93.598 E.16988
G1 X131.611 Y93.598 E.01314
G1 X131.611 Y99.167 E.17461
G1 X131.192 Y99.341 E.01423
G1 X131.192 Y93.598 E.18007
G1 X130.773 Y93.598 E.01314
G1 X130.773 Y99.527 E.1859
G1 X130.354 Y99.74 E.01474
G1 X130.354 Y93.598 E.19258
G1 X129.935 Y93.598 E.01314
M73 P10 R8
M73 Q10 S8
G1 X129.935 Y99.973 E.19988
G1 X129.516 Y100.226 E.01535
G1 X129.516 Y93.598 E.20782
G1 X129.097 Y93.598 E.01314
G1 X129.097 Y100.51 E.21672
G1 X128.678 Y100.819 E.01632
G1 X128.678 Y93.598 E.22641
G1 X128.583 Y93.598 E.00298
G1 X128.583 Y95.905 E.07233
G1 X128.259 Y95.905 E.01016
G1 X128.259 Y101.156 E.16464
G1 X127.84 Y101.529 E.01759
G1 X127.84 Y95.905 E.17634
G1 X127.421 Y95.905 E.01314
G1 X127.421 Y101.942 E.18929
G1 X127.002 Y102.396 E.01937
G1 X127.002 Y95.905 E.20352
G1 X126.583 Y95.905 E.01314
G1 X126.583 Y102.865 E.21823
G1 X126.164 Y103.38 E.02082
G1 X126.164 Y95.905 E.23437
G1 X125.745 Y95.905 E.01314
G1 X125.745 Y103.963 E.25265
G1 X125.326 Y104.631 E.02472
G1 X125.326 Y95.905 E.2736
G1 X124.907 Y95.905 E.01314
G1 X124.907 Y105.422 E.2984
G1 X124.488 Y106.39 E.03307
G1 X124.488 Y95.905 E.32875
G1 X124.069 Y95.905 E.01314
M73 P11 R8
M73 Q11 S8
G1 X124.069 Y107.742 E.37114
G1 X123.831 Y108.976 E.0394
G1 X123.721 Y110.431 E.04575
G1 X123.832 Y112.283 E.05817
G1 X124.069 Y113.519 E.03946
G1 X124.069 Y121.877 E.26206
G1 X124.488 Y121.877 E.01314
G1 X124.488 Y114.871 E.21967
G1 X124.907 Y115.845 E.03324
G1 X124.907 Y121.877 E.18913
G1 X125.326 Y121.877 E.01314
G1 X125.326 Y116.652 E.16383
G1 X125.745 Y117.349 E.0255
G1 X125.745 Y121.877 E.14197
G1 X126.164 Y121.877 E.01314
G1 X126.164 Y117.947 E.12322
G1 X126.583 Y118.478 E.02121
G1 X126.583 Y124.184 E.17891
G1 X127.002 Y124.184 E.01314
G1 X127.002 Y118.956 E.16392
G1 X127.421 Y119.388 E.01887
G1 X127.421 Y124.184 E.15038
G1 X127.84 Y124.184 E.01314
G1 X127.84 Y119.785 E.13793
G1 X128.259 Y120.144 E.0173
G1 X128.259 Y124.184 E.12667
G1 X128.678 Y124.184 E.01314
G1 X128.678 Y120.476 E.11626
G1 X129.097 Y120.777 E.01618
G1 X129.097 Y124.184 E.10682
G1 X129.516 Y124.184 E.01314
G1 X129.516 Y121.049 E.0983
G1 X129.935 Y121.302 E.01535
G1 X129.935 Y124.184 E.09036
G1 X130.354 Y124.184 E.01314
G1 X130.354 Y121.538 E.08296
G1 X130.773 Y121.754 E.01478
M73 Q12 S8
G1 X130.773 Y124.184 E.07619
G1 X131.192 Y124.184 E.01314
M73 P12 R8
G1 X131.192 Y121.947 E.07014
G1 X131.611 Y122.123 E.01425
G1 X131.611 Y124.184 E.06462
G1 X132.03 Y124.184 E.01314
G1 X132.03 Y122.281 E.05967
G1 X132.449 Y122.423 E.01387
G1 X132.449 Y124.184 E.05521
G1 X132.868 Y124.184 E.01314
G1 X132.868 Y122.549 E.05126
G1 X133.287 Y122.658 E.01357
G1 X133.287 Y124.184 E.04785
G1 X133.706 Y124.184 E.01314
G1 X133.706 Y122.735 E.04543
G1 X134.125 Y122.798 E.01329
G1 X134.125 Y124.354 E.04879
M204 S1000
;WIPE_START
G1 F8640
G1 X134.125 Y122.798 E-.35928
G1 X133.706 Y122.735 E-.09784
G1 X133.706 Y124.184 E-.33458
G1 X133.67 Y124.184 E-.0083
;WIPE_END
G1 Z.6 F720
G1 X147.532 Y124.354 F10800
G1 Z.2 F720
G1 E.8 F2100
M204 S800
G1 F1200
G1 X147.532 Y114.222 E.31768
G1 X147.113 Y115.391 E.03894
G1 X147.113 Y124.184 E.2757
G1 X146.694 Y124.184 E.01314
G1 X146.694 Y116.296 E.24732
G1 X146.275 Y117.042 E.02683
G1 X146.275 Y124.184 E.22393
G1 X145.856 Y124.184 E.01314
G1 X145.856 Y117.684 E.2038
G1 X145.437 Y118.255 E.02221
G1 X145.437 Y124.184 E.1859
G1 X145.018 Y124.184 E.01314
G1 X145.018 Y118.771 E.16972
G1 X144.599 Y119.235 E.0196
G1 X144.599 Y124.184 E.15517
G1 X144.18 Y124.184 E.01314
G1 X144.18 Y119.654 E.14203
G1 X143.761 Y120.038 E.01782
G1 X143.761 Y124.184 E.12999
G1 X143.342 Y124.184 E.01314
G1 X143.342 Y120.389 E.11899
G1 X142.923 Y120.711 E.01657
M73 Q13 S8
G1 X142.923 Y124.184 E.10889
G1 X142.504 Y124.184 E.01314
M73 P13 R8
G1 X142.504 Y121.007 E.09961
G1 X142.085 Y121.266 E.01544
G1 X142.085 Y124.184 E.09149
G1 X141.666 Y124.184 E.01314
G1 X141.666 Y121.49 E.08447
G1 X141.248 Y121.697 E.01463
G1 X141.248 Y124.184 E.07798
G1 X140.829 Y124.184 E.01314
G1 X140.829 Y121.881 E.07221
G1 X140.41 Y122.053 E.0142
G1 X140.41 Y124.184 E.06682
G1 X139.991 Y124.184 E.01314
G1 X139.991 Y122.203 E.06211
G1 X139.572 Y122.34 E.01382
G1 X139.572 Y124.184 E.05782
G1 X139.153 Y124.184 E.01314
G1 X139.153 Y122.462 E.05399
G1 X138.734 Y122.565 E.01353
G1 X138.734 Y124.184 E.05076
G1 X138.315 Y124.184 E.01314
G1 X138.315 Y122.659 E.04782
G1 X137.896 Y122.732 E.01334
G1 X137.896 Y124.184 E.04553
G1 X137.608 Y124.184 E.00903
G1 X137.477 Y123.427 E.02409
G1 X137.477 Y122.627 E.02508
M204 S1000
;WIPE_START
G1 F8640
G1 X137.477 Y123.427 E-.18472
G1 X137.608 Y124.184 E-.17739
G1 X137.896 Y124.184 E-.0665
G1 X137.896 Y122.732 E-.33527
G1 X138.05 Y122.705 E-.03612
;WIPE_END
G1 Z.6 F720
G1 X123.65 Y122.047 F10800
G1 Z.2 F720
G1 E.8 F2100
M204 S800
G1 F1200
G1 X123.65 Y98.212 E.74733
G1 X123.231 Y98.212 E.01314
G1 X123.231 Y121.877 E.742
G1 X122.813 Y121.877 E.01311
G1 X122.813 Y98.212 E.742
G1 X122.394 Y98.212 E.01314
M73 P14 R8
M73 Q14 S8
G1 X122.394 Y121.877 E.742
G1 X121.975 Y121.877 E.01314
G1 X121.975 Y98.212 E.742
G1 X121.661 Y98.212 E.00985
G1 X121.661 Y102.826 E.14467
G1 X121.556 Y102.826 E.00329
G1 X121.556 Y117.263 E.45266
G1 X121.137 Y117.263 E.01314
G1 X121.137 Y102.826 E.45266
G1 X120.718 Y102.826 E.01314
G1 X120.718 Y117.263 E.45266
G1 X120.299 Y117.263 E.01314
M73 Q15 S8
G1 X120.299 Y102.826 E.45266
G1 X119.88 Y102.826 E.01314
M73 P15 R8
G1 X119.88 Y117.263 E.45266
G1 X119.461 Y117.263 E.01314
M73 P15 R7
G1 X119.461 Y102.657 E.45796
M204 S1000
;WIPE_START
G1 F8640
G1 X119.461 Y106.122 E-.8
;WIPE_END
G1 Z.6 F720
G1 X144.816 Y116.329 F10800
G1 Z.2 F720
M73 Q15 S7
G1 E.8 F2100
M204 S800
;TYPE:Perimeter
;WIDTH:0.419999
G1 F1200
G1 X144.429 Y116.898 E.02158
G1 X143.986 Y117.496 E.02333
G1 X143.519 Y118.031 E.02227
G1 X143.005 Y118.556 E.02304
G1 X142.464 Y119.034 E.02264
G1 X141.718 Y119.599 E.02934
G1 X141.295 Y119.853 E.01547
G1 X140.587 Y120.232 E.02518
G1 X140.081 Y120.454 E.01733
G1 X139.153 Y120.789 E.03093
G1 X138.594 Y120.949 E.01823
G1 X138.009 Y121.082 E.01881
G1 X137.164 Y121.216 E.02683
G1 X136.552 Y121.275 E.01928
G1 X135.928 Y121.3 E.01958
G1 X135.306 Y121.289 E.01951
G1 X133.93 Y121.143 E.04339
G1 X133.135 Y120.955 E.02561
G1 X132.258 Y120.652 E.02909
G1 X131.358 Y120.251 E.03089
G1 X130.586 Y119.825 E.02765
G1 X130.145 Y119.546 E.01636
G1 X129.54 Y119.113 E.02333
G1 X129.099 Y118.755 E.01781
G1 X128.649 Y118.346 E.01907
G1 X128.224 Y117.912 E.01905
G1 X127.84 Y117.476 E.01822
G1 X127.479 Y117.022 E.01819
G1 X127.054 Y116.393 E.0238
G1 X126.698 Y115.818 E.0212
G1 X126.354 Y115.147 E.02364
G1 X126.103 Y114.578 E.0195
G1 X125.845 Y113.888 E.0231
G1 X125.671 Y113.3 E.01923
G1 X125.425 Y112.069 E.03936
G1 X125.36 Y111.479 E.01861
G1 X125.328 Y110.809 E.02103
G1 X125.33 Y110.297 E.01605
G1 X125.424 Y109.19 E.03483
G1 X125.652 Y108.03 E.03707
G1 X125.808 Y107.486 E.01774
G1 X126.002 Y106.93 E.01846
G1 X126.196 Y106.457 E.01603
G1 X126.462 Y105.901 E.01933
G1 X126.769 Y105.346 E.01989
G1 X127.275 Y104.594 E.02842
G1 X127.669 Y104.067 E.02063
G1 X128.322 Y103.334 E.03078
G1 X128.806 Y102.827 E.02198
G1 X129.188 Y102.478 E.01622
G1 X129.909 Y101.901 E.02895
G1 X130.359 Y101.594 E.01708
G1 X130.952 Y101.24 E.02165
