; generated by PrusaSlicer 2.9.0 on 2025-03-06 at 14:50:08 UTC


;
;
; 

; external perimeters extrusion width = 0.45mm
; perimeters extrusion width = 0.45mm
; infill extrusion width = 0.45mm
; solid infill extrusion width = 0.45mm
; top infill extrusion width = 0.40mm
; support material extrusion width = 0.35mm
; first layer extrusion width = 0.42mm

M73 P0 R68
M73 Q0 S68
M201 X1000 Y1000 Z200 E5000 ; sets maximum accelerations, mm/sec^2
M203 X200 Y200 Z12 E120 ; sets maximum feedrates, mm / sec
M204 S1250 T1250 ; sets acceleration (S) and retract acceleration (R), mm/sec^2
M205 X8.00 Y8.00 Z0.40 E4.50 ; sets the jerk limits, mm/sec
M205 S0 T0 ; sets the minimum extruding and travel feed rate, mm/sec

; printing object Body5.stl id:0 copy 0
; stop printing object Body5.stl id:0 copy 0

;TYPE:Custom
M862.3 P "MK3S" ; printer model check
M862.1 P0.4 ; nozzle diameter check
M115 U3.14.1 ; tell printer latest fw version
G90 ; use absolute coordinates
M83 ; extruder relative mode
M104 S215 ; set extruder temp
M140 S60 ; set bed temp
M190 S60 ; wait for bed temp
M109 S215 ; wait for extruder temp
G28 W ; home all without mesh bed level
G80 X105.837 Y69.6875 W38.326 H70.6251 ; mesh bed levelling

G1 Z0.2 F720
G1 Y-3 F1000 ; go outside print area
G92 E0
G1 X60 E9 F1000 ; intro line
G1 X100 E12.5 F1000 ; intro line

G92 E0
M221 S95

; Don't change E values below. Excessive value can damage the printer.
M907 E430 ; set extruder motor current
G21 ; set units to millimeters
G90 ; use absolute coordinates
M83 ; use relative distances for extrusion

M900 K0.05 ; Filament gcode LA 1.5
M900 K30 ; Filament gcode LA 1.0




M107
;LAYER_CHANGE
;Z:0.2
;HEIGHT:0.2
G1 E-.8 F2100
G1 Z.6 F720
G1 X106.416 Y70.816 F10800
G1 Z.2 F720
G1 E.8 F2100
M204 S800
;TYPE:Skirt/Brim
;WIDTH:0.42
G1 F1200
G1 X107.449 Y70.014 E.041
G1 X108.214 Y69.876 E.02437
G1 X139.479 Y69.876 E.98029
G1 X141.026 Y70.517 E.0525
G1 X143.333 Y72.824 E.1023
G1 X143.974 Y74.372 E.05253
G1 X143.974 Y128.707 E1.70364
G1 X143.862 Y129.399 E.02198
M73 P0 R67
G1 X141.555 Y136.32 E.22874
G1 X140.79 Y137.381 E.04101
G1 X140.171 Y137.705 E.02191
G1 X133.25 Y140.012 E.22874
G1 X132.558 Y140.124 E.02198
G1 X117.442 Y140.124 E.47395
G1 X116.464 Y139.893 E.03151
G1 X111.849 Y137.586 E.16177
G1 X111.281 Y137.176 E.02196
G1 X108.974 Y134.869 E.1023
G1 X108.564 Y134.3 E.02199
G1 X106.257 Y129.686 E.16174
G1 X106.026 Y128.707 E.03154
G1 X106.026 Y72.065 E1.77597
G1 X106.398 Y70.874 E.03912
M204 S1000
;WIPE_START
G1 F8640
G1 X106.416 Y70.816 E-.01402
G1 X107.449 Y70.014 E-.30197
G1 X108.214 Y69.876 E-.17949
G1 X109.533 Y69.876 E-.30452
;WIPE_END
G1 Z.6 F720
; printing object Body5.stl id:0 copy 0
G1 X122.111 Y81.286 F10800
G1 Z.2 F720
G1 E.8 F2100
M204 S800
;TYPE:Support material interface
;WIDTH:0.35
G1 F1200
G1 X122.363 Y81.286 E.00643
G1 X122.363 Y81.21 E.00194
G1 X122.11 Y81.187 E.00649
M204 S1000
G1 X122.11 Y81.187 F10800
G1 X121.696 Y80.997
M204 S800
G1 F1200
G1 X121.958 Y81.173 E.00806
G1 X121.958 Y81.286 E.00289
G1 X121.862 Y81.286 E.00245
G1 X121.696 Y81.452 E.00599
M204 S1000
;WIPE_START
G1 F8640
G1 X121.862 Y81.286 E-.05421
G1 X121.958 Y81.286 E-.02217
G1 X121.958 Y81.173 E-.02609
G1 X121.696 Y80.997 E-.07288
;WIPE_END
G1 E-.62465 F2100
G1 Z.6 F720
G1 X122.798 Y80.668 F10800
G1 Z.2 F720
G1 E.8 F2100
M204 S800
;TYPE:Support material
;WIDTH:0.42
G1 F1200
G1 X122.855 Y80.994 E.01038
G1 X123.109 Y81.2 E.01025
G1 X125.081 Y81.216 E.06183
G1 X126.877 Y81.103 E.05642
G1 X126.943 Y81.044 E.00278
G1 X126.943 Y81.261 E.0068
G1 X123.088 Y81.23 E.12087
G1 X122.808 Y81.507 E.01235
G1 X122.894 Y93.77 E.38451
G1 X122.057 Y93.77 E.02624
G1 X121.977 Y81.685 E.37892
G1 X122.727 Y81.65 E.02354
G1 X122.727 Y80.868 E.02452
G1 X122.028 Y80.814 E.02198
G1 X121.992 Y80.388 E.0134
G1 X122.867 Y80.252 E.02776
G1 X122.807 Y80.612 E.01144
M204 S1000
G1 X122.807 Y80.612 F10800
G1 X122.486 Y93.6
M204 S800
G1 F1200
G1 X122.486 Y81.82 E.36935
M204 S1000
;WIPE_START
G1 F8640
G1 X122.486 Y85.285 E-.8
;WIPE_END
G1 Z.6 F720
G1 X122.693 Y79.246 F10800
G1 Z.2 F720
G1 E.8 F2100
M204 S800
;TYPE:Support material interface
;WIDTH:0.35
G1 F1200
G1 X122.693 Y78.831 E.0106
G1 X122.465 Y78.814 E.00584
G1 X122.465 Y79.934 E.0286
G1 X121.958 Y80 E.01305
G1 X121.958 Y78.776 E.03125
G1 X121.696 Y78.623 E.00775
M204 S1000
;WIPE_START
G1 F8640
G1 X121.958 Y78.776 E-.07006
G1 X121.958 Y80 E-.28263
G1 X122.465 Y79.934 E-.11806
G1 X122.465 Y78.814 E-.25861
G1 X122.693 Y78.831 E-.05279
G1 X122.693 Y78.908 E-.01785
;WIPE_END
G1 Z.6 F720
G1 X122.796 Y77.959 F10800
G1 Z.2 F720
G1 E.8 F2100
M204 S800
;TYPE:Support material
;WIDTH:0.42
G1 F1200
G1 X122.878 Y78.48 E.01654
G1 X121.974 Y78.386 E.0285
G1 X122.027 Y77.959 E.01349
G1 X122.804 Y77.903 E.02443
M204 S1000
;WIPE_START
G1 F8640
G1 X122.027 Y77.959 E-.17988
G1 X121.974 Y78.386 E-.09935
G1 X122.878 Y78.48 E-.20986
G1 X122.796 Y77.959 E-.12178
;WIPE_END
G1 E-.18913 F2100
G1 Z.6 F720
G1 X122.693 Y76.849 F10800
G1 Z.2 F720
G1 E.8 F2100
M204 S800
;TYPE:Support material interface
;WIDTH:0.35
G1 F1200
G1 X122.693 Y76.431 E.01067
G1 X122.465 Y76.417 E.00583
G1 X122.465 Y77.533 E.0285
G1 X121.958 Y77.602 E.01306
G1 X121.958 Y76.373 E.03138
G1 X121.696 Y76.189 E.00817
M204 S1000
;WIPE_START
G1 F8640
G1 X121.958 Y76.373 E-.07392
G1 X121.958 Y77.602 E-.28378
G1 X122.465 Y77.533 E-.11815
G1 X122.465 Y76.417 E-.25769
G1 X122.693 Y76.431 E-.05274
G1 X122.693 Y76.49 E-.01372
;WIPE_END
G1 Z.6 F720
G1 X122.827 Y75.754 F10800
G1 Z.2 F720
G1 E.8 F2100
M204 S800
;TYPE:Support material
;WIDTH:0.42
G1 F1200
G1 X122.845 Y76.075 E.01008
G1 X122 Y75.981 E.02666
G1 X122.049 Y75.65 E.01049
G1 X122.871 Y75.65 E.02577
G1 X122.849 Y75.702 E.00177
M204 S1000
G1 X122.849 Y75.702 F10800
G1 X122.618 Y75.286
M204 S800
;TYPE:Support material interface
;WIDTH:0.35
G1 F1200
G1 X122.693 Y75.286 E.00192
G1 X122.693 Y75.008 E.0071
G1 X122.465 Y75.008 E.00582
G1 X122.465 Y75.286 E.0071
G1 X121.958 Y75.286 E.01295
G1 X121.958 Y75.008 E.0071
G1 X121.45 Y75.008 E.01297
G1 X121.45 Y95.772 E.53018
G1 X120.943 Y95.772 E.01295
G1 X120.943 Y75.008 E.53018
G1 X120.436 Y75.008 E.01295
G1 X120.436 Y95.772 E.53018
M204 S1000
;WIPE_START
G1 F8640
G1 X120.436 Y92.307 E-.8
;WIPE_END
G1 Z.6 F720
G1 X121.696 Y93.923 F10800
G1 Z.2 F720
G1 E.8 F2100
M204 S800
G1 F1200
G1 X121.958 Y94.133 E.00857
G1 X121.958 Y95.772 E.04185
G1 X122.465 Y95.772 E.01295
G1 X122.465 Y94.133 E.04185
G1 X122.693 Y94.133 E.00582
G1 X122.693 Y94.565 E.01103
M204 S1000
;WIPE_START
G1 F8640
G1 X122.693 Y94.133 E-.09975
G1 X122.465 Y94.133 E-.05265
G1 X122.465 Y95.772 E-.37845
G1 X121.958 Y95.772 E-.11707
G1 X121.958 Y95.114 E-.15208
;WIPE_END
G1 Z.6 F720
G1 X127.307 Y95.34 F10800
G1 Z.2 F720
G1 E.8 F2100
M204 S800
G1 F1200
G1 X127.307 Y95.772 E.01103
G1 X127.535 Y95.772 E.00582
G1 X127.535 Y94.133 E.04185
G1 X128.042 Y94.133 E.01295
G1 X128.042 Y95.772 E.04185
G1 X128.55 Y95.772 E.01297
G1 X128.55 Y75.008 E.53018
G1 X129.057 Y75.008 E.01295
G1 X129.057 Y95.772 E.53018
G1 X129.564 Y95.772 E.01295
G1 X129.564 Y75.008 E.53018
M204 S1000
;WIPE_START
G1 F8640
G1 X129.564 Y78.473 E-.8
;WIPE_END
G1 Z.6 F720
G1 X128.396 Y75.008 F10800
G1 Z.2 F720
G1 E.8 F2100
M204 S800
G1 F1200
G1 X128.042 Y75.008 E.00904
G1 X128.042 Y75.286 E.0071
G1 X127.535 Y75.286 E.01295
G1 X127.535 Y75.008 E.0071
G1 X127.307 Y75.008 E.00582
G1 X127.307 Y75.286 E.0071
G1 X127.382 Y75.286 E.00192
M204 S1000
G1 X127.382 Y75.286 F10800
G1 X127.946 Y75.65
M204 S800
;TYPE:Support material
;WIDTH:0.42
G1 F1200
G1 X128.013 Y75.858 E.00685
G1 X127.164 Y75.964 E.02683
G1 X127.118 Y75.65 E.00995
G1 X127.889 Y75.65 E.02417
M204 S1000
G1 X127.889 Y75.65 F10800
G1 X128.304 Y76.085
M204 S800
;TYPE:Support material interface
;WIDTH:0.35
G1 F1200
G1 X128.244 Y76.196 E.00322
G1 X128.042 Y76.221 E.0052
G1 X128.042 Y77.446 E.03128
G1 X127.535 Y77.405 E.01299
G1 X127.535 Y76.284 E.02862
G1 X127.307 Y76.313 E.00587
G1 X127.307 Y76.716 E.01029
M204 S1000
G1 X127.307 Y76.716 F10800
G1 X126.943 Y77.496
M204 S800
;TYPE:Support material
;WIDTH:0.42
G1 F1200
G1 X126.856 Y77.422 E.00358
G1 X125.111 Y77.399 E.05472
G1 X123.057 Y77.528 E.06453
G1 X123.057 Y76.344 E.03712
G1 X123.418 Y76.411 E.01151
G1 X125.259 Y76.411 E.05772
G1 X126.943 Y76.255 E.05303
G1 X126.943 Y77.439 E.03712
M204 S1000
G1 X126.943 Y77.439 F10800
G1 X126.257 Y77.233
M204 S800
G1 F1200
G1 X126.257 Y76.696 E.01684
G1 X125.838 Y76.72 E.01316
G1 X125.838 Y77.057 E.01057
G1 X125.419 Y77.058 E.01314
G1 X125.419 Y76.742 E.00991
G1 X125 Y76.755 E.01314
G1 X125 Y77.063 E.00966
G1 X124.581 Y77.08 E.01315
G1 X124.581 Y76.762 E.00997
G1 X124.162 Y76.763 E.01314
G1 X124.162 Y77.096 E.01044
G1 X123.743 Y77.127 E.01317
G1 X123.743 Y76.586 E.01696
M204 S1000
G1 X123.743 Y76.586 F10800
G1 X127.817 Y77.789
M204 S800
G1 F1200
G1 X128.017 Y77.836 E.00644
G1 X127.97 Y78.261 E.01341
G1 X127.156 Y78.364 E.02573
G1 X127.133 Y77.743 E.01948
G1 X127.76 Y77.785 E.0197
M204 S1000
G1 X127.76 Y77.785 F10800
G1 X128.304 Y78.439
M204 S800
;TYPE:Support material interface
;WIDTH:0.35
G1 F1200
G1 X128.042 Y78.618 E.0081
G1 X128.042 Y79.846 E.03136
G1 X127.535 Y79.805 E.01299
G1 X127.535 Y78.688 E.02852
G1 X127.307 Y78.714 E.00586
G1 X127.307 Y79.119 E.01034
M204 S1000
G1 X127.307 Y79.119 F10800
G1 X126.943 Y79.896
M204 S800
;TYPE:Support material
;WIDTH:0.42
G1 F1200
G1 X126.863 Y79.825 E.00335
G1 X125.413 Y79.795 E.04547
G1 X123.613 Y79.873 E.05649
G1 X123.057 Y79.982 E.01776
G1 X123.057 Y78.715 E.03973
G1 X123.151 Y78.796 E.00389
G1 X124.711 Y78.824 E.04892
G1 X126.943 Y78.659 E.07017
G1 X126.943 Y79.84 E.03703
M204 S1000
G1 X126.943 Y79.84 F10800
G1 X126.257 Y79.632
M204 S800
G1 F1200
G1 X126.257 Y79.093 E.0169
G1 X125.838 Y79.121 E.01317
G1 X125.838 Y79.458 E.01057
G1 X125.419 Y79.455 E.01314
G1 X125.419 Y79.141 E.00985
G1 X125 Y79.155 E.01314
G1 X125 Y79.466 E.00975
G1 X124.581 Y79.476 E.01314
G1 X124.581 Y79.163 E.00981
G1 X124.162 Y79.162 E.01314
G1 X124.162 Y79.5 E.0106
G1 X123.743 Y79.525 E.01316
G1 X123.743 Y78.989 E.01681
M204 S1000
G1 X123.743 Y78.989 F10800
G1 X127.211 Y80.146
M204 S800
G1 F1200
G1 X127.974 Y80.205 E.02399
G1 X128.014 Y80.63 E.01338
G1 X127.142 Y80.765 E.02767
G1 X127.154 Y80.143 E.01951
M204 S1000
;WIPE_START
G1 F8640
G1 X127.142 Y80.765 E-.14365
G1 X128.014 Y80.63 E-.20375
G1 X127.974 Y80.205 E-.09857
G1 X127.211 Y80.146 E-.1767
;WIPE_END
G1 E-.17733 F2100
G1 Z.6 F720
G1 X127.382 Y81.286 F10800
G1 Z.2 F720
G1 E.8 F2100
M204 S800
;TYPE:Support material interface
;WIDTH:0.35
G1 F1200
G1 X127.307 Y81.286 E.00192
G1 X127.307 Y81.112 E.00444
G1 X127.535 Y81.085 E.00586
G1 X127.535 Y81.286 E.00513
G1 X128.042 Y81.286 E.01295
G1 X128.042 Y81.02 E.00679
G1 X128.304 Y80.853 E.00793
M204 S1000
G1 X128.304 Y80.853 F10800
G1 X127.988 Y81.65
M204 S800
;TYPE:Support material
;WIDTH:0.42
G1 F1200
G1 X127.978 Y93.735 E.37892
G1 X127.106 Y93.77 E.02736
G1 X127.194 Y81.65 E.38002
G1 X127.931 Y81.65 E.02311
M73 Q0 S67
M204 S1000
G1 X127.514 Y93.6 F10800
M204 S800
G1 F1200
G1 X127.514 Y81.82 E.36935
M204 S1000
;WIPE_START
G1 F8640
G1 X127.514 Y85.285 E-.8
;WIPE_END
G1 Z.6 F720
G1 X139.479 Y74.372 F10800
G1 Z.2 F720
G1 E.8 F2100
M204 S800
G1 F1200
G1 X141.786 Y74.372 E.07233
G1 X141.786 Y94.101 E.61859
G1 X139.479 Y94.101 E.07233
G1 X139.479 Y98.715 E.14467
G1 X132.558 Y98.715 E.217
G1 X132.558 Y108.978 E.32179
G1 X137.172 Y108.978 E.14467
M73 P1 R67
M73 Q1 S67
G1 X137.172 Y113.592 E.14467
G1 X139.479 Y113.592 E.07233
G1 X139.479 Y115.899 E.07233
G1 X141.786 Y115.899 E.07233
G1 X141.786 Y128.707 E.40159
G1 X139.479 Y128.707 E.07233
G1 X139.479 Y135.628 E.217
G1 X132.558 Y135.628 E.217
G1 X132.558 Y137.935 E.07233
G1 X117.442 Y137.935 E.47395
G1 X117.442 Y135.628 E.07233
G1 X112.828 Y135.628 E.14467
G1 X112.828 Y133.321 E.07233
G1 X110.521 Y133.321 E.07233
G1 X110.521 Y128.707 E.14467
G1 X108.214 Y128.707 E.07233
G1 X108.214 Y113.592 E.47392
G1 X112.828 Y113.592 E.14467
G1 X112.828 Y108.978 E.14467
G1 X117.442 Y108.978 E.14467
G1 X117.442 Y98.715 E.32179
G1 X110.521 Y98.715 E.217
G1 X110.521 Y94.101 E.14467
G1 X108.214 Y94.101 E.07233
G1 X108.214 Y72.065 E.69092
G1 X139.479 Y72.065 E.98029
G1 X139.479 Y74.315 E.07055
M204 S1000
;WIPE_START
G1 F8640
G1 X139.479 Y72.065 E-.51953
G1 X138.264 Y72.065 E-.28047
;WIPE_END
G1 Z.6 F720
G1 X126.943 Y75.342 F10800
G1 Z.2 F720
G1 E.8 F2100
M204 S800
G1 F1200
G1 X126.943 Y74.644 E.02189
G1 X129.978 Y74.644 E.09516
G1 X129.978 Y96.135 E.67384
G1 X126.943 Y96.135 E.09516
G1 X126.943 Y94.072 E.06468
G1 X126.824 Y94.19 E.00525
G1 X123.176 Y94.19 E.11438
G1 X123.057 Y94.072 E.00525
G1 X123.057 Y96.135 E.06468
G1 X120.022 Y96.135 E.09516
G1 X120.022 Y74.644 E.67384
G1 X123.057 Y74.644 E.09516
G1 X123.057 Y75.34 E.02182
G1 X123.223 Y75.23 E.00624
G1 X126.788 Y75.23 E.11178
G1 X126.898 Y75.309 E.00425
M204 S1000
;WIPE_START
G1 F8640
G1 X126.788 Y75.23 E-.03127
G1 X123.459 Y75.23 E-.76873
;WIPE_END
G1 Z.6 F720
G1 X141.34 Y128.537 F10800
G1 Z.2 F720
G1 E.8 F2100
M204 S800
G1 F1200
G1 X141.34 Y116.238 E.38563
G1 X140.921 Y116.238 E.01314
G1 X140.921 Y128.368 E.38033
G1 X140.502 Y128.368 E.01314
G1 X140.502 Y116.238 E.38033
G1 X140.083 Y116.238 E.01314
G1 X140.083 Y128.368 E.38033
G1 X139.664 Y128.368 E.01314
G1 X139.664 Y116.238 E.38033
G1 X139.245 Y116.238 E.01314
G1 X139.245 Y128.368 E.38033
G1 X139.139 Y128.368 E.00332
G1 X139.139 Y135.289 E.217
G1 X138.826 Y135.289 E.00981
G1 X138.826 Y113.931 E.66967
G1 X138.407 Y113.931 E.01314
G1 X138.407 Y135.289 E.66967
G1 X137.988 Y135.289 E.01314
G1 X137.988 Y113.931 E.66967
G1 X137.569 Y113.931 E.01314
G1 X137.569 Y135.289 E.66967
G1 X137.15 Y135.289 E.01314
G1 X137.15 Y113.931 E.66967
G1 X136.832 Y113.931 E.00997
G1 X136.832 Y109.317 E.14467
G1 X136.731 Y109.317 E.00317
G1 X136.731 Y135.289 E.81433
G1 X136.312 Y135.289 E.01314
G1 X136.312 Y109.317 E.81433
G1 X135.893 Y109.317 E.01314
G1 X135.893 Y135.289 E.81433
G1 X135.474 Y135.289 E.01314
G1 X135.474 Y109.317 E.81433
G1 X135.055 Y109.317 E.01314
M73 P1 R66
G1 X135.055 Y135.289 E.81433
G1 X134.636 Y135.289 E.01314
G1 X134.636 Y109.317 E.81433
G1 X134.217 Y109.317 E.01314
G1 X134.217 Y135.289 E.81433
G1 X133.799 Y135.289 E.01311
G1 X133.799 Y109.317 E.81433
G1 X133.38 Y109.317 E.01314
G1 X133.38 Y135.289 E.81433
G1 X132.961 Y135.289 E.01314
G1 X132.961 Y109.317 E.81433
G1 X132.542 Y109.317 E.01314
G1 X132.542 Y135.289 E.81433
G1 X132.218 Y135.289 E.01016
G1 X132.218 Y137.596 E.07233
G1 X132.123 Y137.596 E.00298
G1 X132.123 Y72.404 E2.04405
G1 X132.542 Y72.404 E.01314
M73 P2 R66
M73 Q2 S67
G1 X132.542 Y98.376 E.81433
G1 X132.961 Y98.376 E.01314
G1 X132.961 Y72.404 E.81433
G1 X133.38 Y72.404 E.01314
G1 X133.38 Y98.376 E.81433
G1 X133.799 Y98.376 E.01314
G1 X133.799 Y72.404 E.81433
G1 X134.217 Y72.404 E.01311
G1 X134.217 Y98.376 E.81433
G1 X134.636 Y98.376 E.01314
G1 X134.636 Y72.404 E.81433
G1 X135.055 Y72.404 E.01314
G1 X135.055 Y98.376 E.81433
G1 X135.474 Y98.376 E.01314
G1 X135.474 Y72.404 E.81433
G1 X135.893 Y72.404 E.01314
G1 X135.893 Y98.376 E.81433
G1 X136.312 Y98.376 E.01314
G1 X136.312 Y72.404 E.81433
G1 X136.731 Y72.404 E.01314
M73 Q2 S66
G1 X136.731 Y98.376 E.81433
G1 X137.15 Y98.376 E.01314
G1 X137.15 Y72.404 E.81433
G1 X137.569 Y72.404 E.01314
G1 X137.569 Y98.376 E.81433
G1 X137.988 Y98.376 E.01314
G1 X137.988 Y72.404 E.81433
G1 X138.407 Y72.404 E.01314
G1 X138.407 Y98.376 E.81433
G1 X138.826 Y98.376 E.01314
G1 X138.826 Y72.404 E.81433
G1 X139.139 Y72.404 E.00981
G1 X139.139 Y74.711 E.07233
G1 X139.245 Y74.711 E.00332
G1 X139.245 Y93.762 E.59733
G1 X139.664 Y93.762 E.01314
G1 X139.664 Y74.711 E.59733
G1 X140.083 Y74.711 E.01314
G1 X140.083 Y93.762 E.59733
G1 X140.502 Y93.762 E.01314
G1 X140.502 Y74.711 E.59733
G1 X140.921 Y74.711 E.01314
G1 X140.921 Y93.762 E.59733
G1 X141.34 Y93.762 E.01314
G1 X141.34 Y74.541 E.60266
M204 S1000
;WIPE_START
G1 F8640
G1 X141.34 Y78.006 E-.8
;WIPE_END
G1 Z.6 F720
G1 X131.704 Y137.766 F10800
G1 Z.2 F720
G1 E.8 F2100
M204 S800
G1 F1200
G1 X131.704 Y72.404 E2.04938
G1 X131.285 Y72.404 E.01314
G1 X131.285 Y137.596 E2.04405
G1 X130.866 Y137.596 E.01314
G1 X130.866 Y72.404 E2.04405
